src/components/00-materials/images-raw/P&C/Frost.svg

<svg xmlns="http://www.w3.org/2000/svg" viewBox="0 0 96 96"><path d="M47.92 81.01l.02-9m-.02 9l.16-66.04m-12.02 2.97l11.99 9.04L60.08 18m-12.03 8.98L60.08 18m-.14 60.04L47.95 69l-12.03 8.98m12.03-8.97l-12.03 8.97m40.64-13.41L19.44 31.41M16.01 43.3l13.82-5.86-1.76-14.91m1.76 14.91l-1.76-14.91m51.92 30.15l-13.82 5.86 1.76 14.91m-1.76-14.91l1.76 14.91m8.71-41.9L19.36 64.43m8.58 8.92l1.83-14.9-13.79-5.93m13.79 5.93l-13.78-5.93m52.07-29.89l-1.84 14.9 13.8 5.93m-13.79-5.93l13.78 5.93" fill="none" stroke="#00008f" stroke-linecap="round" stroke-linejoin="round" stroke-width="2"/></svg>

<svg xmlns="http://www.w3.org/2000/svg" viewBox="0 0 96 96"><defs><style>.cls-2{fill:none;stroke:#00008f;stroke-linecap:round;stroke-linejoin:round;stroke-width:2px}</style></defs><g id="Layer_2" ><g id="icons"><path class="cls-2" d="M47.92 81.01l.02-9M47.92 81.01l.16-66.04M36.06 17.94l11.99 9.04L60.08 18M48.05 26.98L60.08 18M59.94 78.04L47.95 69l-12.03 8.98M47.95 69.01l-12.03 8.97M76.56 64.57L19.44 31.41M16.01 43.3l13.82-5.86-1.76-14.91M29.83 37.44l-1.76-14.91M79.99 52.68l-13.82 5.86 1.76 14.91M66.17 58.54l1.76 14.91M76.64 31.55L19.36 64.43M27.94 73.35l1.83-14.9-13.79-5.93M29.77 58.45l-13.78-5.93M68.06 22.63l-1.84 14.9 13.8 5.93M66.23 37.53l13.78 5.93"/></g></g></svg>
